packages/sources/assets/src/assets/flag-ceu.svg

<svg width="28" height="20" viewBox="0 0 28 20" fill="none" xmlns="http://www.w3.org/2000/svg">
<rect width="28" height="20" rx="2" fill="white"/>
<mask id="mask0_503_3830" style="mask-type:alpha" maskUnits="userSpaceOnUse" x="0" y="0" width="28" height="20">
<rect width="28" height="20" rx="2" fill="white"/>
</mask>
<g mask="url(#mask0_503_3830)">
<rect width="28" height="20" fill="#19BFBF"/>
<path fill-rule="evenodd" clip-rule="evenodd" d="M17.0976 17.7643L16.0556 16.7223C16.019 16.6857 15.9915 16.6411 15.9751 16.592L15.4092 14.8944C15.3639 14.7584 15.2366 14.6667 15.0933 14.6667C14.8766 14.6667 14.7176 14.8703 14.7701 15.0805L15.2875 17.1502C15.3159 17.2638 15.2827 17.384 15.1999 17.4668L14.9024 17.7643C14.7722 17.8945 14.5611 17.8945 14.431 17.7643L14.0976 17.431C14.0351 17.3685 14 17.2837 14 17.1953V16.0787C14 16.0269 13.9879 15.9759 13.9648 15.9296L13.4255 14.8509C13.369 14.738 13.2536 14.6667 13.1273 14.6667H11.412C11.3603 14.6667 11.3092 14.6787 11.2629 14.7019L10.1235 15.2716C10.0444 15.3111 9.98428 15.3805 9.95633 15.4643L9.37699 17.2024C9.34903 17.2862 9.2889 17.3555 9.20983 17.3951L8.14906 17.9255C8.05522 17.9724 7.94476 17.9724 7.85092 17.9255L6.85092 17.4255C6.73799 17.369 6.66666 17.2536 6.66666 17.1273V15C6.66666 14.8159 6.81589 14.6667 6.99999 14.6667H8.33332C8.51742 14.6667 8.66666 14.5174 8.66666 14.3333V13.3874C8.66666 13.3516 8.67243 13.316 8.68376 13.282L9.25735 11.5613C9.30272 11.4251 9.4301 11.3333 9.57358 11.3333H10.588C10.6397 11.3333 10.6908 11.3213 10.737 11.2981L11.9296 10.7019C11.9759 10.6787 12.0269 10.6667 12.0787 10.6667H13C13.1841 10.6667 13.3333 10.5174 13.3333 10.3333V10.1381C13.3333 10.0497 13.3684 9.96489 13.431 9.90237L13.673 9.66036C13.8339 9.49948 14.1051 9.54349 14.2068 9.74699L14.5745 10.4824C14.631 10.5953 14.7464 10.6667 14.8727 10.6667H16.4264C16.5699 10.6667 16.6973 10.5749 16.7426 10.4387L17.2573 8.8946C17.3027 8.75848 17.4301 8.66667 17.5736 8.66667H18.3333C18.5174 8.66667 18.6667 8.51743 18.6667 8.33334C18.6667 8.14924 18.5174 8.00001 18.3333 8.00001H17.6667C17.4826 8.00001 17.3333 7.85077 17.3333 7.66667V6.74536C17.3333 6.69361 17.3454 6.64258 17.3685 6.59629L17.8925 5.54823C17.9567 5.4199 17.9316 5.26491 17.8301 5.16345L17.569 4.90237C17.4389 4.7722 17.2278 4.7722 17.0976 4.90237L16.0976 5.90237C16.0351 5.96489 16 6.04967 16 6.13808V7.27925C16 7.31507 15.9942 7.35067 15.9829 7.38465L15.4093 9.10541C15.3639 9.24153 15.2365 9.33334 15.0931 9.33334H14.8047C14.7163 9.33334 14.6315 9.29822 14.569 9.23571L14.0961 8.76275C14.0346 8.70123 14 8.61779 14 8.53079C14 8.28693 13.7434 8.12832 13.5252 8.23738L12.8815 8.55923C12.7532 8.62339 12.5982 8.59824 12.4968 8.49679L12.0976 8.09764C12.0351 8.03512 12 7.95034 12 7.86193V6.80474C12 6.71634 12.0351 6.63155 12.0976 6.56904L13.3333 5.33334L15.2777 3.38898C15.3143 3.35239 15.3589 3.32482 15.408 3.30845L17.282 2.68378C17.316 2.67245 17.3516 2.66667 17.3874 2.66667H18.4606C18.5869 2.66667 18.7023 2.73801 18.7588 2.85093L19.2981 3.92962C19.3213 3.97591 19.3333 4.02695 19.3333 4.07869V5.86193C19.3333 5.95034 19.3684 6.03512 19.431 6.09764L19.8543 6.521C19.9436 6.61028 19.9748 6.74233 19.9348 6.86211L19.4138 8.42514C19.3663 8.56774 19.4201 8.72452 19.5452 8.8079L21.3333 10L22.3289 10.4978C22.5083 10.5875 22.5684 10.814 22.4572 10.9808L21.3893 12.5827C21.3528 12.6375 21.3333 12.7018 21.3333 12.7676V14.4264C21.3333 14.5699 21.2415 14.6973 21.1054 14.7426L19.4643 15.2897C19.3804 15.3176 19.3111 15.3778 19.2716 15.4568L18.6908 16.6183C18.6748 16.6503 18.6537 16.6796 18.6284 16.7049L17.569 17.7643C17.4389 17.8945 17.2278 17.8945 17.0976 17.7643ZM11.3333 17.3333C11.7015 17.3333 12 17.0349 12 16.6667C12 16.2985 11.7015 16 11.3333 16C10.9651 16 10.6667 16.2985 10.6667 16.6667C10.6667 17.0349 10.9651 17.3333 11.3333 17.3333ZM9.33332 8.66667C9.33332 9.03486 9.03485 9.33334 8.66666 9.33334C8.29847 9.33334 7.99999 9.03486 7.99999 8.66667C7.99999 8.29848 8.29847 8.00001 8.66666 8.00001C9.03485 8.00001 9.33332 8.29848 9.33332 8.66667Z" fill="white"/>
<path fill-rule="evenodd" clip-rule="evenodd" d="M9.96482 8.73705C9.98796 8.69077 10 8.63973 10 8.58798V8.07869C10 8.02695 9.98796 7.97591 9.96482 7.92962L9.57455 7.14908C9.46373 6.92744 9.62489 6.66667 9.87269 6.66667H10.3333C10.5174 6.66667 10.6667 6.81591 10.6667 7.00001V8.58798C10.6667 8.63973 10.6787 8.69077 10.7019 8.73705L11.0921 9.5176C11.203 9.73923 11.0418 10 10.794 10H9.87269C9.62489 10 9.46373 9.73923 9.57455 9.5176L9.96482 8.73705Z" fill="white"/>
</g>
</svg>

<svg width="28" height="20" fill="none" xmlns="http://www.w3.org/2000/svg"><rect width="28" height="20" rx="2" fill="#fff"/><mask id="a" style="mask-type:alpha" maskUnits="userSpaceOnUse" x="0" y="0" width="28" height="20"><rect width="28" height="20" rx="2" fill="#fff"/></mask><g mask="url(#a)"><path fill="#19BFBF" d="M0 0h28v20H0z"/><path fill-rule="evenodd" clip-rule="evenodd" d="m17.098 17.764-1.042-1.042a.334.334 0 0 1-.08-.13l-.567-1.698a.333.333 0 0 0-.639.187l.518 2.07a.333.333 0 0 1-.088.316l-.298.297a.333.333 0 0 1-.471 0l-.333-.333a.333.333 0 0 1-.098-.236V16.08a.334.334 0 0 0-.035-.15l-.54-1.078a.333.333 0 0 0-.298-.184h-1.715a.333.333 0 0 0-.15.035l-1.139.57a.333.333 0 0 0-.167.192l-.579 1.738a.334.334 0 0 1-.167.193l-1.06.53a.333.333 0 0 1-.3 0l-1-.5a.333.333 0 0 1-.183-.298V15c0-.184.149-.333.333-.333h1.333c.184 0 .334-.15.334-.334v-.946c0-.035.005-.071.017-.105l.573-1.72a.333.333 0 0 1 .317-.229h1.014a.332.332 0 0 0 .149-.035l1.193-.596a.333.333 0 0 1 .149-.035H13c.184 0 .333-.15.333-.334v-.195c0-.088.035-.173.098-.236l.242-.242a.333.333 0 0 1 .534.087l.367.735a.333.333 0 0 0 .299.185h1.553a.335.335 0 0 0 .317-.228l.514-1.544a.333.333 0 0 1 .317-.228h.76a.333.333 0 1 0 0-.667h-.667a.333.333 0 0 1-.334-.333v-.922c0-.051.012-.102.036-.149l.523-1.048a.333.333 0 0 0-.062-.385l-.261-.26a.333.333 0 0 0-.471 0l-1 1a.333.333 0 0 0-.098.235V7.28a.334.334 0 0 1-.017.106l-.574 1.72a.333.333 0 0 1-.316.228h-.288a.333.333 0 0 1-.236-.097l-.473-.473A.328.328 0 0 1 14 8.53a.328.328 0 0 0-.475-.294l-.643.322a.333.333 0 0 1-.385-.062l-.4-.4A.333.333 0 0 1 12 7.863V6.805c0-.089.035-.173.098-.236l1.235-1.236 1.945-1.944a.333.333 0 0 1 .13-.08l1.874-.625a.333.333 0 0 1 .105-.017h1.074c.126 0 .241.071.298.184l.54 1.079a.333.333 0 0 1 .034.149v1.783c0 .088.035.173.098.236l.423.423c.09.09.12.221.08.341l-.52 1.563c-.048.143.006.3.131.383L21.333 10l.996.498c.18.09.24.316.128.483l-1.068 1.602a.334.334 0 0 0-.056.185v1.658a.333.333 0 0 1-.228.317l-1.64.547a.333.333 0 0 0-.193.167l-.581 1.161a.333.333 0 0 1-.063.087l-1.059 1.06a.333.333 0 0 1-.471 0Zm-5.765-.43a.667.667 0 1 0 0-1.334.667.667 0 0 0 0 1.333Zm-2-8.667a.667.667 0 1 1-1.333 0 .667.667 0 0 1 1.333 0Z" fill="#fff"/><path fill-rule="evenodd" clip-rule="evenodd" d="M9.965 8.737A.333.333 0 0 0 10 8.588v-.51a.333.333 0 0 0-.035-.148l-.39-.78a.333.333 0 0 1 .298-.483h.46c.184 0 .334.149.334.333v1.588a.34.34 0 0 0 .035.15l.39.78a.333.333 0 0 1-.298.482h-.921a.333.333 0 0 1-.298-.482l.39-.781Z" fill="#fff"/></g></svg>
